X:15
T:Don Brown's Fiddle
R:hornpipe
C:Paul S. Cranford
O:Cape Breton Island
N:Winston Fitzgerald made most of his recordings with Don's fiddle
S:http://www.cranfordpub.com
D:currently unrecorded
B:currently unpublished in book form
Z:psc
H:                                                        copyrights Cranford Publications, SOCAN
L:1/8
Q:333
M:C|
K:Bb
zf|{f}b2 fd B2 dB|ABGB F2 B,C|DFBd edcB|Afg=e f2 ga|
b2 fd B2 dB|ABGB F2 B,C|DFBd edcA|B2 d2 B2:|
|:Bd|edeg fdBb|agcg f2 dB|edeg fdBd|edcB c2 Bd|
edeg fdBb|agcg f2 ga|bag=e fdcA|B2 d2 B2:|
